X:1
T:Oh Polly, You Might Have Toy'd and Kis'd
M:3/4
L:1/4
K:C
 G| G E F| G2 e| d2 c| A2 c| G E F| G2 e| d2 c| d3| d e f| g- f e|\
 f A d| B- A G| c e2| A2 d| G B2| c3|
